static/images/mobile/copyright/wikipedia-wordmark-ru.svg

<?xml version="1.0" encoding="UTF-8"?>
<svg width="120px" height="20px" viewBox="0 0 120 20" version="1.1" xmlns="http://www.w3.org/2000/svg" xmlns:xlink="http://www.w3.org/1999/xlink">
    <title>wikipedia-wordmark-ru</title>
    <g id="Page-1" stroke="none" stroke-width="1" fill="none" fill-rule="evenodd">
        <path d="M83.5873042,4.81873902 L88.5046696,4.81873902 C89.0694456,4.81873902 90.5581466,4.78431281 90.5581466,4.78431281 L90.5962945,4.81873902 L90.5962945,5.16300113 C90.5962945,5.27093195 90.5218595,5.30070597 90.4455636,5.3062886 L89.8984659,5.34164525 C89.2936812,5.38165409 89.2024982,5.61333318 89.2024982,6.26650074 L89.2024982,15.0796106 C89.2024982,15.7485956 89.6258476,15.9486398 89.9570835,16.0026052 C90.3655459,16.0705272 90.5106942,16.1310057 90.5218595,16.3468673 L90.6539817,19.0246682 C90.145032,19.0246682 90.145032,19.0442074 90.145032,19.0442074 C89.9189356,18.0309603 89.2406462,16.4920157 87.732406,16.4920157 L82.2698038,16.4920157 C80.7048069,16.4920157 80.2163269,18.1035345 80.0088392,19.0442074 L79.4989591,19.0246682 L79.6310813,16.3468673 C79.6441074,16.1310057 79.8413603,16.0295879 80.0283784,16.0026052 C80.3968319,15.9477094 80.6973634,15.9039788 80.9699817,15.6406648 C81.4631139,15.1698631 81.7999325,13.8663193 82.401926,11.04337 C82.8150405,8.98058873 83.0420674,7.11692118 83.0420674,5.97620405 C83.0420674,5.59658529 82.8717973,5.40956723 82.3823868,5.36211489 L81.8176109,5.3062886 C81.7227062,5.3062886 81.6678103,5.27093195 81.6678103,5.19742734 L81.6678103,4.81873902 L81.7050279,4.78431281 C81.7050279,4.78431281 83.0234587,4.81873902 83.5873042,4.81873902 Z M116.785336,0.0502436585 C117.564113,0.0502436585 120,0.0251218292 120,0.0251218292 L120,0.560123748 C120,0.661541503 119.949756,0.735976553 119.825078,0.735976553 L119.070492,0.789011526 C118.014445,0.865307452 117.738105,1.04488201 117.738105,1.91018946 L117.738105,14.6292786 C117.738105,15.3950291 118.06655,15.675091 119.095614,15.7504565 L119.773904,15.8044219 C119.87346,15.8044219 119.974878,15.8797874 119.974878,16.0072574 L119.974878,16.4920157 L119.924635,16.5450507 C119.924635,16.5450507 117.916519,16.4963431 116.8885,16.4922842 L116.760214,16.4920157 C115.855829,16.4920157 113.521359,16.5450507 113.521359,16.5450507 L113.470185,16.4920157 L113.470185,16.0072574 C113.470185,15.8797874 113.546481,15.8044219 113.67209,15.8044219 L114.324327,15.7504565 C115.380375,15.6704388 115.705098,15.343855 115.705098,14.6292786 L115.705098,8.23251649 C113.043114,8.23251649 112.541608,8.97128435 111.486491,11.6751375 C110.406253,14.4394692 109.477675,16.4892244 107.694956,16.5171375 L106.037846,16.5403985 L106.012724,16.4892244 L106.009932,16.006327 C106.009932,15.878857 106.085298,15.8034915 106.184855,15.8034915 L106.410021,15.7774392 C107.213919,15.6769519 108.459776,14.2887382 109.752155,10.8824043 C110.37927,9.2262244 111.131994,8.58794385 111.811214,8.18134239 L111.811214,8.1059769 C110.10293,7.85103686 108.069922,6.57633663 108.069922,3.97576209 C108.069922,2.2163036 108.923134,0.0251218292 113.594864,0.0251218292 C114.474128,0.0251218292 115.955385,0.0502436585 116.785336,0.0502436585 Z M6.49120154,0 C11.1629313,0 11.8914644,2.2163036 11.8914644,3.92458799 C11.8914644,5.30814947 10.7637734,6.61820635 9.50582105,7.26486084 L9.50582105,7.31603494 C11.6914202,7.95431549 13.3736523,9.35369442 13.3736523,11.8026076 C13.3736523,13.9928589 12.0421954,16.5441202 7.04481223,16.5441202 C4.80989986,16.5441202 4.45819425,16.4910852 3.37795559,16.4910852 C2.09767274,16.4910852 1.34401786,16.5171375 0.113048232,16.5441202 C-0.0376827439,16.3905979 -0.0376827439,15.8546656 0.113048232,15.7011433 C1.87157628,15.6257778 2.29771694,15.4983078 2.29771694,13.3834219 L2.29771694,3.16069829 C2.29771694,1.04581245 1.87157628,0.917411986 0.113048232,0.841116061 C-0.0376827439,0.689454647 -0.0376827439,0.15352229 0.113048232,0.00093043812 C1.36913969,0.0251218292 2.0967423,0.0521045347 3.35283377,0.0521045347 C4.43214198,0.0511740966 5.61193752,0 6.49120154,0 Z M66.6133215,4.78431281 C66.7259046,4.89038276 66.7259046,5.27186239 66.6133215,5.37979321 C65.2939603,5.43468906 64.9738896,5.52494156 64.9738896,7.02759912 L64.9738896,14.2859469 C64.9738896,15.7886045 65.2939603,15.878857 66.6133215,15.9337528 C66.7259046,16.0416836 66.7259046,16.4222328 66.6133215,16.5310941 C65.6903269,16.5115549 65.1246206,16.4938766 64.163478,16.4938766 C63.2218746,16.4938766 62.674777,16.5134158 61.734104,16.5310941 C61.621521,16.4231633 61.621521,16.0426141 61.734104,15.9337528 C63.0525349,15.878857 63.373536,15.7895349 63.373536,14.2859469 L63.373536,6.88338121 C63.373536,5.76220328 62.9594911,5.5454112 62.5063677,5.5454112 L58.79485,5.5454112 C58.3435875,5.5454112 57.9276817,5.7603424 57.9276817,6.88338121 L57.9276817,14.2859469 C57.9276817,15.7886045 58.2477524,15.878857 59.5671137,15.9337528 C59.6815576,16.0416836 59.6815576,16.4222328 59.5671137,16.5310941 C58.6255103,16.5115549 58.0784127,16.4938766 57.1377397,16.4938766 C56.1765972,16.4938766 55.6108908,16.5134158 54.6878962,16.5310941 C54.5753132,16.4231633 54.5753132,16.0426141 54.6878962,15.9337528 C56.0072574,15.878857 56.3273281,15.7895349 56.3273281,14.2859469 L56.3273281,7.02759912 C56.3273281,5.52680243 56.0072574,5.43375862 54.6878962,5.37979321 C54.5753132,5.27279283 54.5753132,4.8913132 54.6878962,4.78431281 C55.63043,4.80199114 56.6846164,4.81873902 57.119131,4.81873902 L64.1830172,4.81873902 C64.6910364,4.81873902 65.6717182,4.80013026 66.6133215,4.78431281 Z M53.2550215,4.78059106 C53.3676045,4.88759144 53.3676045,5.26907107 53.2550215,5.37793233 C51.9356602,5.43189774 51.6155895,5.52215024 51.6155895,7.02573824 L51.6155895,14.2831556 C51.6155895,15.7867436 51.9356602,15.8779265 53.2550215,15.9309615 C53.3676045,16.0370314 53.3676045,16.4194415 53.2550215,16.5283028 C52.3134181,16.509694 51.7663205,16.4910852 50.8256475,16.4910852 C49.8645049,16.4910852 49.2987986,16.5106244 48.3767344,16.5283028 C48.2632209,16.4203719 48.2632209,16.0379619 48.3767344,15.9309615 C49.6951652,15.8751352 50.0161664,15.7867436 50.0161664,14.2831556 L50.0161664,7.8398716 C49.8756702,7.88546307 49.7789046,7.96734162 49.6867913,8.07434201 L44.5423989,14.2291902 C44.3218851,14.4999477 44.1339366,14.645096 44.0036752,15.0749584 C44.1376583,15.8230307 44.5572859,15.8872309 45.5900722,15.9309615 C45.7035857,16.0388923 45.7035857,16.4194415 45.5900722,16.5283028 C44.6475384,16.5087636 44.1004408,16.4910852 43.1597679,16.4910852 C42.1986253,16.4910852 41.6338493,16.5106244 40.7108547,16.5283028 C40.5973413,16.4203719 40.5973413,16.0398228 40.7108547,15.9309615 C42.0292855,15.8760656 42.3502867,15.7867436 42.3502867,14.2831556 L42.3502867,7.02480781 C42.3502867,5.52401112 42.030216,5.43096731 40.7108547,5.3770019 C40.5973413,5.27000151 40.5973413,4.88852188 40.7108547,4.7815215 C41.6533885,4.79919982 42.1995557,4.81594771 43.1411591,4.81594771 C44.1023017,4.81594771 44.6670776,4.79733895 45.5900722,4.7815215 C45.7035857,4.88759144 45.7035857,5.26907107 45.5900722,5.3770019 C44.2716414,5.43189774 43.9497098,5.52308068 43.9497098,7.02480781 L43.9497098,13.4671613 C44.037171,13.4625092 44.1460323,13.4011002 44.2837371,13.268978 L49.4597644,7.07877322 C49.6728347,6.8219723 49.8477571,6.49352764 49.9566183,6.20043963 C49.8170526,5.48400228 49.3937033,5.41887161 48.375804,5.37793233 C48.2622905,5.27000151 48.2622905,4.88852188 48.375804,4.78059106 C49.3183378,4.79919982 49.8645049,4.81687815 50.8051779,4.81687815 C51.7663205,4.81687815 52.3320268,4.79733895 53.2550215,4.78059106 Z M105.010642,4.78059106 C105.124155,4.88759144 105.124155,5.26907107 105.010642,5.37793233 C103.692211,5.43189774 103.37121,5.52215024 103.37121,7.02573824 L103.37121,14.2831556 C103.37121,15.7867436 103.692211,15.8779265 105.010642,15.9309615 C105.124155,16.0370314 105.124155,16.4194415 105.010642,16.5283028 C104.068108,16.509694 103.521941,16.4910852 102.580338,16.4910852 C101.621056,16.4910852 101.054419,16.5106244 100.132355,16.5283028 C100.019772,16.4203719 100.019772,16.0379619 100.132355,15.9309615 C101.449855,15.8751352 101.771787,15.7867436 101.771787,14.2831556 L101.771787,7.8398716 C101.63036,7.88546307 101.533595,7.96734162 101.442412,8.07434201 L96.2970889,14.2291902 C96.0784359,14.4999477 95.889557,14.645096 95.7592957,15.0749584 C95.8942092,15.8230307 96.3138368,15.8872309 97.3456927,15.9309615 C97.4582757,16.0388923 97.4582757,16.4194415 97.3456927,16.5283028 C96.4031588,16.5087636 95.8560612,16.4910852 94.9163187,16.4910852 C93.9551761,16.4910852 93.3894698,16.5106244 92.4664752,16.5283028 C92.3538921,16.4203719 92.3538921,16.0398228 92.4664752,15.9309615 C93.7858364,15.8760656 94.1059071,15.7867436 94.1059071,14.2831556 L94.1059071,7.02480781 C94.1059071,5.52401112 93.7858364,5.43096731 92.4664752,5.3770019 C92.3538921,5.27000151 92.3538921,4.88852188 92.4664752,4.7815215 C93.409009,4.79919982 93.9551761,4.81594771 94.8958491,4.81594771 C95.8560612,4.81594771 96.422698,4.79733895 97.3456927,4.7815215 C97.4582757,4.88759144 97.4582757,5.26907107 97.3456927,5.3770019 C96.0263314,5.43189774 95.7053302,5.52308068 95.7053302,7.02480781 L95.7053302,13.4671613 C95.7937219,13.4625092 95.9016527,13.4011002 96.0384271,13.268978 L101.215385,7.07877322 C101.428455,6.8219723 101.602447,6.49352764 101.712239,6.20043963 C101.573603,5.48400228 101.150254,5.41887161 100.132355,5.37793233 C100.019772,5.27000151 100.019772,4.88852188 100.132355,4.78059106 C101.073958,4.79919982 101.621056,4.81687815 102.561729,4.81687815 C103.521941,4.81687815 104.088578,4.79733895 105.010642,4.78059106 Z M27.3116154,4.78059106 C27.4241984,4.88759144 27.4241984,5.26907107 27.3116154,5.37793233 C25.9931845,5.43189774 25.6721834,5.52215024 25.6721834,7.02573824 L25.6721834,14.2831556 C25.6731138,15.7867436 25.9931845,15.8779265 27.3125458,15.9309615 C27.4251288,16.0370314 27.4251288,16.4194415 27.3125458,16.5283028 C26.370012,16.509694 25.8238448,16.4910852 24.8822414,16.4910852 C23.9210988,16.4910852 23.3563229,16.5106244 22.4333283,16.5283028 C22.3198148,16.4203719 22.3198148,16.0379619 22.4333283,15.9309615 C23.7517591,15.8751352 24.0727603,15.7867436 24.0727603,14.2831556 L24.0727603,7.8398716 C23.9313337,7.88546307 23.8354985,7.96734162 23.7433852,8.07434201 L18.5980624,14.2291902 C18.3775485,14.4999477 18.1896,14.645096 18.0593387,15.0749584 C18.1933218,15.8230307 18.6129494,15.8872309 19.6457357,15.9309615 C19.7592491,16.0388923 19.7592491,16.4194415 19.6457357,16.5283028 C18.7032019,16.5087636 18.1570347,16.4910852 17.2154313,16.4910852 C16.2542887,16.4910852 15.6895128,16.5106244 14.7665182,16.5283028 C14.6539352,16.4203719 14.6539352,16.0398228 14.7665182,15.9309615 C16.084949,15.8760656 16.4059502,15.7867436 16.4059502,14.2831556 L16.4059502,7.02480781 C16.4059502,5.52401112 16.0858794,5.43096731 14.7665182,5.3770019 C14.6539352,5.27000151 14.6539352,4.88852188 14.7665182,4.7815215 C15.709052,4.79919982 16.2552192,4.81594771 17.1968226,4.81594771 C18.1579651,4.81594771 18.7227411,4.79733895 19.6457357,4.7815215 C19.7592491,4.88759144 19.7592491,5.26907107 19.6457357,5.3770019 C18.3273049,5.43189774 18.0063037,5.52308068 18.0063037,7.02480781 L18.0063037,13.4671613 C18.0928345,13.4625092 18.2016957,13.4011002 18.3394006,13.268978 L23.5163583,7.07877322 C23.7294286,6.8219723 23.904351,6.49352764 24.0132122,6.20043963 C23.8736465,5.48400228 23.4502972,5.41887161 22.4323979,5.37793233 C22.3188844,5.27000151 22.3188844,4.88852188 22.4323979,4.78059106 C23.3749317,4.79919982 23.9210988,4.81687815 24.8627022,4.81687815 C25.8229144,4.81687815 26.3886207,4.79733895 27.3116154,4.78059106 Z M37.5613217,4.7108082 C38.5596818,4.7108082 38.8992917,5.23464486 38.8992917,5.65148114 C38.8992917,6.17624824 38.466638,6.37629244 38.0702713,6.37629244 C37.8255661,6.37629244 37.5613217,6.28603994 37.3724427,6.10460451 C37.164955,5.90456031 37.0142241,5.81430781 36.7695188,5.81430781 C36.2047429,5.81430781 36.0744816,6.41257952 35.9786464,6.93548575 C35.7711587,8.05852456 35.3757225,9.61328666 33.9437783,10.1213059 L33.9437783,10.2124888 C35.2436003,10.2124888 35.9786464,10.9894046 36.4866657,12.2585222 C37.4682779,14.6999919 38.4275596,15.9318919 39.0863098,15.9858573 L39.3877717,16.0044661 C39.4826764,16.0044661 39.5385027,16.0584315 39.5385027,16.1468231 L39.5385027,16.4910852 L39.5198939,16.5283028 L38.0311929,16.5087636 C36.5611007,16.4901548 35.8828113,15.0237843 35.0733302,13.0335772 C34.3364232,11.2257359 33.9809958,10.6274642 31.8326142,10.6274642 L31.8326142,15.2070806 C31.8326142,15.7476652 32.1154674,15.9095614 32.8691222,15.9672486 L33.3585327,16.0007444 C33.4338982,16.0007444 33.5092637,16.0565706 33.5092637,16.1449623 L33.5092637,16.4901548 L33.4711157,16.5264419 C32.7928263,16.4992266 32.3160349,16.4924227 31.7227934,16.4907218 L30.3388568,16.4910011 C29.7657694,16.493117 29.2697888,16.5005226 28.610507,16.5264419 L28.572359,16.4901548 L28.572359,16.1468231 L28.5742199,16.1468231 C28.5742199,16.0565706 28.6309766,16.0035357 28.7063421,16.0035357 L29.2143613,15.9691095 C30.0061642,15.9114223 30.2322606,15.7141694 30.2322606,15.2089415 L30.2322606,6.10460451 C30.2322606,5.56122864 29.9494074,5.39840197 29.2143613,5.34350612 L28.7249509,5.30814947 C28.6495854,5.30814947 28.5742199,5.25325363 28.5742199,5.164862 L28.5742199,4.8205999 L28.6123678,4.78617369 C29.5549017,4.80385201 30.1196776,4.8205999 31.061281,4.8205999 C32.0038148,4.8205999 32.549982,4.80199114 33.4729766,4.78617369 L33.5111246,4.8205999 L33.5111246,5.164862 C33.5111246,5.25604494 33.4543678,5.30814947 33.3603936,5.30814947 L32.8709831,5.34350612 C32.1173282,5.40119329 31.8344751,5.59751573 31.8344751,6.10460451 L31.8344751,9.8682267 C32.5127644,9.8682267 33.3603936,9.85054838 33.8125865,9.59746921 C34.9235296,9.01780626 35.187774,7.86034124 35.3571138,6.84709413 C35.5459927,5.72684663 36.0735511,4.7108082 37.5613217,4.7108082 Z M76.2945302,4.7424431 C76.3522174,4.7424431 76.3689652,4.7619823 76.3689652,4.79826939 C76.4071132,4.94248729 76.6908968,6.67868483 76.7830102,7.42024401 C76.5997139,7.50770519 76.3950175,7.54492272 76.1614775,7.51328782 C75.7474326,6.26463986 75.4450402,5.540759 74.0326351,5.540759 L72.0545237,5.540759 C71.6041916,5.540759 71.3762343,5.901769 71.3762343,6.33535316 L71.3762343,9.95475745 L73.0910317,9.95475745 C74.6960375,9.95661832 74.7527942,9.72307835 74.8086205,8.72657913 C74.922134,8.61864831 75.3175702,8.61864831 75.4310836,8.72657913 C75.4115444,9.27181587 75.3929356,9.66725207 75.3929356,10.2841325 C75.3929356,10.8982217 75.4124748,11.2415534 75.4310836,11.877973 C75.3175702,11.9831125 74.922134,11.9831125 74.8086205,11.877973 C74.7518638,11.0629092 74.6960375,10.6442121 73.0947535,10.6442121 L71.3790256,10.6442121 L71.3790256,15.006106 C71.3790256,15.4955165 71.6423396,15.7858131 72.057315,15.7858131 L74.620672,15.7858131 C76.0516858,15.7858131 76.7122969,14.7167397 77.0872635,13.4141264 C77.3356904,13.3555088 77.5506216,13.3945872 77.7469441,13.5043789 C77.5962131,14.4273735 77.3133599,15.622056 77.0500459,16.5273723 C77.0500459,16.5273723 75.6896989,16.4937835 74.7782664,16.4904246 L70.5475164,16.490668 C70.3018715,16.4938597 68.9724695,16.5113776 68.1373792,16.5273723 C68.0247962,16.4194415 68.0247962,16.0379619 68.1373792,15.9291006 C69.4567404,15.8751352 69.7768112,15.7858131 69.7768112,14.2822251 L69.7768112,7.02387737 C69.7768112,5.52215024 69.4567404,5.43096731 68.1373792,5.37607146 C68.0247962,5.26907107 68.0247962,4.88759144 68.1373792,4.78059106 C69.0808434,4.79826939 70.5676836,4.81501727 70.5676836,4.81501727 L75.3715356,4.81501727 C75.8237285,4.81501727 75.9744595,4.79640851 76.2945302,4.7424431 Z M86.9061769,5.54168944 L84.5875252,5.54168944 C84.0804364,5.54168944 83.8915574,5.79569905 83.8534095,6.24789198 C83.7008176,8.07527244 83.402147,9.95661832 83.1751201,11.1885184 C82.7610751,13.3052651 82.2902734,15.0982194 82.2902734,15.4769077 C82.2902734,15.6936998 82.5359091,15.7858131 82.7992231,15.7858131 L86.9247857,15.7858131 C87.3769786,15.7858131 87.6030751,15.7299869 87.6030751,15.0610018 L87.6030751,6.2460311 C87.6030751,5.68497691 87.4895616,5.54168944 86.9061769,5.54168944 Z M6.1655482,8.02875054 L4.43214198,8.02875054 L4.43214198,13.9919284 C4.43214198,14.8339749 4.75872576,15.7002128 6.51725381,15.7002128 C10.3348414,15.7002128 11.0373222,14.1473116 11.0373222,12.2845745 C11.0373222,9.99197497 9.60537793,8.02875054 6.1655482,8.02875054 Z M113.419011,0.917411986 C112.012189,0.917411986 110.10386,1.32494388 110.10386,3.69476977 C110.10386,6.39676208 111.661414,7.26486084 113.745595,7.26486084 L115.704167,7.26486084 L115.704167,1.83668485 C115.704167,0.992777474 115.60461,0.917411986 113.419011,0.917411986 Z M6.61774113,0.868098766 C4.50499529,0.868098766 4.43457043,1.10458719 4.43222293,1.88097057 L4.43214198,7.16251265 L6.29115735,7.16251265 C8.37533874,7.16251265 9.85752666,6.39676208 9.85752666,4.23349345 C9.85752666,1.63198846 8.02363313,0.868098766 6.61774113,0.868098766 Z" id="wikipedia-wordmark-ru" fill="#000000" fill-rule="nonzero"></path>
    </g>
</svg>

<svg xmlns="http://www.w3.org/2000/svg" width="120" height="20"><path fill="#000" fill-rule="nonzero" d="M83.587 4.819h4.918c.564 0 2.053-.035 2.053-.035l.038.035v.344c0 .108-.074.138-.15.143l-.548.036c-.604.04-.696.271-.696.925v8.813c0 .669.424.869.755.923.409.068.554.128.565.344l.132 2.678c-.509 0-.509.02-.509.02-.226-1.014-.904-2.553-2.413-2.553H82.27c-1.565 0-2.054 1.612-2.261 2.552l-.51-.02.132-2.677c.013-.216.21-.317.397-.344.369-.055.67-.099.942-.362.493-.471.83-1.775 1.432-4.598.413-2.062.64-3.926.64-5.067 0-.38-.17-.566-.66-.614l-.564-.056c-.095 0-.15-.035-.15-.109V4.82l.037-.035s1.318.035 1.882.035ZM116.785.05c.78 0 3.215-.025 3.215-.025V.56c0 .102-.05.176-.175.176l-.755.053c-1.056.076-1.332.256-1.332 1.121v12.72c0 .765.329 1.045 1.358 1.12l.678.054a.2.2 0 0 1 .2.203v.485l-.05.053s-2.007-.049-3.036-.053h-.128c-.904 0-3.239.053-3.239.053l-.05-.053v-.485c0-.127.075-.203.201-.203l.652-.054c1.056-.08 1.381-.406 1.381-1.12V8.232c-2.662 0-3.163.738-4.219 3.442-1.08 2.764-2.008 4.814-3.791 4.842l-1.657.023-.025-.05-.003-.484c0-.127.075-.203.175-.203l.225-.026c.804-.1 2.05-1.488 3.342-4.895.627-1.656 1.38-2.294 2.06-2.7v-.076c-1.71-.255-3.742-1.53-3.742-4.13 0-1.76.853-3.95 5.525-3.95.88 0 2.36.024 3.19.024ZM6.491 0c4.672 0 5.4 2.216 5.4 3.925 0 1.383-1.127 2.693-2.385 3.34v.051c2.185.638 3.868 2.038 3.868 4.487 0 2.19-1.332 4.741-6.33 4.741-2.234 0-2.586-.053-3.666-.053-1.28 0-2.034.026-3.265.053-.15-.153-.15-.69 0-.843 1.759-.075 2.185-.203 2.185-2.318V3.161C2.298 1.046 1.872.917.113.84c-.15-.152-.15-.687 0-.84 1.256.024 1.984.051 3.24.051C4.433.052 5.612 0 6.49 0Zm60.122 4.784c.113.106.113.488 0 .596-1.319.055-1.64.145-1.64 1.648v7.258c0 1.503.321 1.593 1.64 1.648.113.108.113.488 0 .597-.923-.02-1.488-.037-2.45-.037-.941 0-1.488.02-2.429.037-.112-.108-.112-.488 0-.597 1.319-.055 1.64-.144 1.64-1.648V6.883c0-1.12-.415-1.338-.868-1.338h-3.711c-.451 0-.867.215-.867 1.338v7.403c0 1.503.32 1.593 1.64 1.648.114.108.114.488 0 .597-.942-.02-1.49-.037-2.43-.037-.961 0-1.527.02-2.45.037-.113-.108-.113-.488 0-.597 1.32-.055 1.64-.144 1.64-1.648V7.028c0-1.501-.32-1.594-1.64-1.648-.113-.107-.113-.489 0-.596.942.018 1.997.035 2.431.035h7.064c.508 0 1.489-.019 2.43-.035Zm-13.358-.003c.113.107.113.488 0 .597-1.32.054-1.64.144-1.64 1.648v7.257c0 1.504.32 1.595 1.64 1.648.113.106.113.488 0 .597-.942-.018-1.489-.037-2.43-.037-.96 0-1.526.02-2.448.037-.114-.108-.114-.49 0-.597 1.318-.056 1.64-.144 1.64-1.648V7.84a.712.712 0 0 0-.33.234l-5.145 6.155c-.22.27-.408.416-.538.846.134.748.553.812 1.586.856.114.108.114.488 0 .597-.942-.02-1.49-.037-2.43-.037-.961 0-1.526.02-2.45.037-.113-.108-.113-.488 0-.597 1.32-.055 1.64-.144 1.64-1.648V7.025c0-1.501-.32-1.594-1.64-1.648-.113-.107-.113-.488 0-.595.943.017 1.49.034 2.431.034.961 0 1.526-.019 2.45-.034.113.106.113.487 0 .595-1.32.055-1.641.146-1.641 1.648v6.442c.087-.004.196-.066.334-.198l5.176-6.19c.213-.257.388-.585.497-.879-.14-.716-.563-.781-1.581-.822-.114-.108-.114-.49 0-.597.942.018 1.489.036 2.43.036.96 0 1.526-.02 2.449-.036Zm51.756 0c.113.107.113.488 0 .597-1.319.054-1.64.144-1.64 1.648v7.257c0 1.504.321 1.595 1.64 1.648.113.106.113.488 0 .597-.943-.018-1.49-.037-2.43-.037-.96 0-1.527.02-2.449.037-.112-.108-.112-.49 0-.597 1.318-.056 1.64-.144 1.64-1.648V7.84a.703.703 0 0 0-.33.234l-5.145 6.155c-.219.27-.407.416-.538.846.135.748.555.812 1.587.856.112.108.112.488 0 .597-.943-.02-1.49-.037-2.43-.037-.96 0-1.527.02-2.45.037-.112-.108-.112-.488 0-.597 1.32-.055 1.64-.144 1.64-1.648V7.025c0-1.501-.32-1.594-1.64-1.648-.112-.107-.112-.488 0-.595.943.017 1.49.034 2.43.034.96 0 1.527-.019 2.45-.034.112.106.112.487 0 .595-1.32.055-1.64.146-1.64 1.648v6.442c.088-.004.196-.066.332-.198l5.177-6.19a3.17 3.17 0 0 0 .497-.879c-.138-.716-.562-.781-1.58-.822-.112-.108-.112-.49 0-.597.942.018 1.49.036 2.43.036.96 0 1.527-.02 2.449-.036Zm-77.7 0c.113.107.113.488 0 .597-1.318.054-1.639.144-1.639 1.648v7.257c.001 1.504.321 1.595 1.64 1.648.113.106.113.488 0 .597-.942-.018-1.488-.037-2.43-.037-.96 0-1.526.02-2.449.037-.113-.108-.113-.49 0-.597 1.319-.056 1.64-.144 1.64-1.648V7.84a.708.708 0 0 0-.33.234l-5.145 6.155c-.22.27-.408.416-.539.846.134.748.554.812 1.587.856.113.108.113.488 0 .597-.943-.02-1.489-.037-2.43-.037-.962 0-1.526.02-2.45.037-.112-.108-.112-.488 0-.597 1.319-.055 1.64-.144 1.64-1.648V7.025c0-1.501-.32-1.594-1.64-1.648-.112-.107-.112-.488 0-.595.943.017 1.49.034 2.43.034.962 0 1.527-.019 2.45-.034.113.106.113.487 0 .595-1.319.055-1.64.146-1.64 1.648v6.442c.087-.004.196-.066.333-.198l5.177-6.19c.213-.257.388-.585.497-.879-.14-.716-.563-.781-1.58-.822-.114-.108-.114-.49 0-.597.942.018 1.488.036 2.43.036.96 0 1.526-.02 2.449-.036Zm10.25-.07c.999 0 1.338.524 1.338.94 0 .525-.432.725-.829.725-.244 0-.509-.09-.698-.271-.207-.2-.358-.29-.602-.29-.565 0-.696.598-.791 1.12-.208 1.124-.603 2.678-2.035 3.186v.091c1.3 0 2.035.777 2.543 2.047.981 2.441 1.94 3.673 2.6 3.727l.3.018c.096 0 .152.054.152.143v.344l-.02.037-1.488-.02c-1.47-.018-2.148-1.484-2.958-3.474-.737-1.808-1.092-2.407-3.24-2.407v4.58c0 .54.282.703 1.036.76l.49.034c.075 0 .15.056.15.144v.345l-.038.036a42.825 42.825 0 0 0-1.748-.035h-1.384c-.573.002-1.07.01-1.728.035l-.039-.036v-.343h.002c0-.09.057-.143.132-.143l.508-.035c.792-.058 1.018-.255 1.018-.76V6.105c0-.544-.283-.707-1.018-.761l-.489-.036c-.075 0-.15-.055-.15-.143V4.82l.037-.035c.943.018 1.508.035 2.45.035.942 0 1.488-.019 2.411-.035l.038.035v.344c0 .091-.057.143-.15.143l-.49.036c-.754.057-1.037.254-1.037.76v3.764c.679 0 1.526-.017 1.979-.27 1.11-.58 1.375-1.738 1.544-2.75.189-1.121.717-2.137 2.204-2.137Zm38.734.031c.057 0 .074.02.074.056.038.144.322 1.88.414 2.622a1.073 1.073 0 0 1-.622.093c-.414-1.248-.716-1.972-2.128-1.972h-1.978c-.45 0-.679.36-.679.794v3.62h1.715c1.605.002 1.662-.232 1.718-1.228.113-.108.509-.108.622 0-.02.545-.038.94-.038 1.557 0 .614.02.958.038 1.594-.113.105-.509.105-.622 0-.057-.815-.113-1.234-1.714-1.234h-1.716v4.362c0 .49.263.78.678.78h2.564c1.43 0 2.091-1.07 2.466-2.372a.881.881 0 0 1 .66.09c-.15.923-.434 2.118-.697 3.023 0 0-1.36-.033-2.272-.037h-4.23c-.246.004-1.576.021-2.41.037-.113-.108-.113-.489 0-.598 1.319-.054 1.639-.143 1.639-1.647V7.024c0-1.502-.32-1.593-1.64-1.648-.112-.107-.112-.488 0-.595.944.017 2.43.034 2.43.034h4.805c.452 0 .602-.019.923-.073Zm10.611.8h-2.318c-.508 0-.696.254-.735.706a53.197 53.197 0 0 1-.678 4.94c-.414 2.117-.885 3.91-.885 4.289 0 .217.246.309.51.309h4.125c.452 0 .678-.056.678-.725V6.246c0-.561-.113-.704-.697-.704ZM6.166 8.029H4.432v5.963c0 .842.327 1.708 2.085 1.708 3.818 0 4.52-1.553 4.52-3.415 0-2.293-1.432-4.256-4.871-4.256ZM113.419.917c-1.407 0-3.315.408-3.315 2.778 0 2.702 1.557 3.57 3.642 3.57h1.958V1.837c0-.844-.1-.92-2.285-.92ZM6.618.868c-2.113 0-2.183.237-2.186 1.013v5.282h1.86c2.083 0 3.566-.766 3.566-2.93 0-2.601-1.834-3.365-3.24-3.365Z"/></svg>
